X: 1323
T: Kız Sen Geldin Çerkeş`ten
C: Faize Ergin
O: Turkey
F: http://compmusic.upf.edu/node/140
N: nihavent--sarki--aksak--kiz_sen--faize_ergin
N: makam= nihavent
N: form= sarki
N: usul= aksak = 9/8
M: 9/8
L: 1/16
K: C _B _e  
Q: 1/4=216
%%MIDI tuningsystem comma53
A4 B2A2 G4 d6 | c2 B2A2 G2^F2 E2D4z2  | \
w:  ARANAĞME  |   | 
A4 B2A2 G4 d4 z2 | A2 c2B2 A2G2 ^F2G4z2  | 
w:   |   | 
A4 B2A2 G4 d6 | c2 B2A2 G2^F2 E2D4z2  | \
w:  ARANAĞME  |   | 
A4 B2A2 G4 d4 z2 | A2 c2B2 A2G2 ^F2G4z2  | 
w:   |   | 
.D2.G2 .D2.G2 D4 G4 z2 | A4B2 A2G4e2 d2^c2  | \
w:  *  *  *  *  Kız  sen   |  gel din  *  Çer keş  | 
d4 z4 e3d c6 | d4B4A2 B2c2 B2A2  | 
w:  ten   Pek  *  gü  |  zel sin  her *  kes  | 
G4 ^F2E2 D4 G4 z2 | A4B2 A2G4e2 d2^c2  | \
w:  ten   *  *  Kız  sen   |  gel din  *  Çer keş  | 
d4 z4 e3d c6 | d4B4A2 B2c2 B2A2  | 
w:  ten   Pek  *  gü  |  zel sin  her *  kes  | 
G4 z4 d4 g4 z2 | f2 e2d2 c2d2 _1/4e2f2 e2g2  | \
w:  ten   Far kın   |  yok *  tur  *  bil *  lâ  | 
f4 z4 g4 e4 c2 | d4BA G2A2 B2c2 B2A2  | 
w:  hi   Le pis ka   |  saç lı  *  *  Çer *  kes  | 
G4 z4 d4 g4 z2 | f2 e2d2 c2d2 _1/4e2f2 e2g2  | \
w:  ten   Far kın   |  yok *  tur  *  bil *  lâ  | 
f4 z4 g4 e4 c2 | d4BA G2A2 B2c2 B2A2  | 
w:  hi   Le pis ka   |  saç lı  *  *  Çer *  kes  | 
G4 z4 .d4 .g4 z2 | d4g4d4g4z2  | f2g2 g2f2 f2e2 e2{f}e2 d2 | \
w:  ten   SAZ  |  An nen  ba ban   |  iş te  bu nu  bil *  mez  | 
d6 c2B2 A2G4z2  | 
w:  ler   SAZ  | 
d4 g4 d4 g4 z2 | f2 g2g2 f2f2 e2e2 {f}e2d2  | \
w:  An nen  ba ban   |  iş te  bu nu  bil *  mez  | 
d6c2 B2c2 d4 z2 | e3dc2 e2d2 c2B2 A2G2  | 
w:  ler   SAZ  |  Kız  *  se ni  bey *  le *  re   | 
B3A G2^F2 G2A2 B2c2 d2 | e3dc2 e2d2 c2B2 A2G2  | \
w:  ver *  mez *  ler    |  Kız  *  se ni  bey *  le *  re   | 
B3A G2^F2 G4 z6 | 
w:  ver *  mez *  ler    | 
A4B2 A2G4d6  | c2B2 A2G2 ^F2E2 D4 z2 | \
w:  ARANAĞME  |   | 
A4B2 A2G4d4z2  | A2c2 B2A2 G2^F2 G4 z2 | 
w:   |   | 
A4B2 A2G4d6  | c2B2 A2G2 ^F2E2 D4 z2 | \
w:  ARANAĞME  |   | 
A4B2 A2G4d4z2  | A2c2 B2A2 G2^F2 G4 z2 | 
w:   |   | 
.D2 .G2.D2 .G2D4G4z2  | A4 B2A2 G4 e2d2 ^c2 | \
w:  *  *  *  *  Kız  sen   |  gel din  *  Çer keş  | 
d4z4e3dc6  | d4 B4 A2B2 c2B2 A2 | 
w:  ten   Pek  *  gü  |  zel sin  her *  kes  | 
G4^F2 E2D4G4z2  | A4 B2A2 G4 e2d2 ^c2 | \
w:  ten   *  *  Kız  sen   |  gel din  *  Çer keş  | 
d4z4e3dc6  | d4 B4 A2B2 c2B2 A2 | 
w:  ten   Pek  *  gü  |  zel sin  her *  kes  | 
G4z4d4g4z2  | f2e2 d2c2 d2_1/4e2 f2e2 g2 | \
w:  ten   Far kın   |  yok *  tur  *  bil *  lâ  | 
f4z4g4e4c2  | d4 BAG2 A2B2 c2B2 A2 | 
w:  hi   Le pis ka   |  saç lı  *  *  Çer *  kes  | 
G4z4d4g4z2  | f2e2 d2c2 d2_1/4e2 f2e2 g2 | \
w:  ten   Far kın   |  yok *  tur  *  bil *  lâ  | 
f4z4g4e4c2  | d4 BAG2 A2B2 c2B2 A2 | 
w:  hi   Le pis ka   |  saç lı  *  *  Çer *  kes  | 
G4z4.d4.g4z2  | d4 g4 d4 g4 z2 | f2 g2g2 f2f2 e2e2 {f}e2d2  | \
w:  ten   SAZ  |  An nen  ba ban   |  iş te  bu nu  bil *  mez  | 
d6c2 B2A2 G4 z2 | 
w:  ler   SAZ  | 
d4g4d4g4z2  | f2g2 g2f2 f2e2 e2{f}e2 d2 | \
w:  An nen  ba ban   |  iş te  bu nu  bil *  mez  | 
d6 c2B2 c2d4z2  | e3d c2e2 d2c2 B2A2 G2 | 
w:  ler   SAZ  |  Kız  *  se ni  bey *  le *  re   | 
B3AG2 ^F2G2 A2B2 c2d2  | e3d c2e2 d2c2 B2A2 G2 | \
w:  ver *  mez *  ler    |  Kız  *  se ni  bey *  le *  re   | 
B3AG2 ^F2G4z6  | 
w:  ver *  mez *  ler    | 
|


